X: 7388
T: Cloch Na Ceithre Mhile
R: reel
M: 4/4
K: Ddorian
D2AD D2AD|D2cA GEDE|C2(3EDC GCED|CEE2 CEGE|
D2AD D2de|e/e/d ec dcde|e/e/d ec dcAd|cAGE CDDC:|
Dded aded|DAA2 G2EC|DCGC ACG2|(3gag (3ege (3cdc GD|
EAdd de (3fga|dc AGA2de|e/e/d ec dcAd|cAGE CDDC:|

